Badges/Community/Discord/link-discord-server.svg

<svg width="130" height="32" viewBox="0 0 130 32" fill="none" xmlns="http://www.w3.org/2000/svg">
<g filter="url(#filter0_i_25_75)">
<rect width="130" height="32" rx="4" fill="#5865F2"/>
<path d="M21.2188 10.9688C22.0885 12.2552 22.7083 13.5938 23.0781 14.9844C23.4688 16.4427 23.5885 17.9688 23.4375 19.5625L23.4297 19.5781L23.4141 19.5938C22.2734 20.4427 21.0234 21.0781 19.6641 21.5C19.6536 21.5 19.6432 21.4974 19.6328 21.4922C19.6224 21.4922 19.6146 21.487 19.6094 21.4766C19.3229 21.0807 19.0677 20.6641 18.8438 20.2266V20.2109V20.1875L18.8516 20.1719L18.875 20.1562C19.276 20.0052 19.6641 19.8203 20.0391 19.6016C20.0495 19.5964 20.0547 19.5911 20.0547 19.5859C20.0599 19.5755 20.0625 19.5677 20.0625 19.5625C20.0625 19.5521 20.0599 19.5443 20.0547 19.5391C20.0547 19.5286 20.0521 19.5208 20.0469 19.5156C19.9688 19.4583 19.8906 19.3984 19.8125 19.3359C19.8073 19.3307 19.7995 19.3281 19.7891 19.3281C19.7786 19.3229 19.7708 19.3229 19.7656 19.3281C18.5521 19.8906 17.2995 20.1719 16.0078 20.1719C14.7161 20.1719 13.4557 19.8906 12.2266 19.3281C12.2161 19.3229 12.2057 19.3229 12.1953 19.3281C12.1901 19.3281 12.1849 19.3307 12.1797 19.3359C12.1068 19.3932 12.0286 19.4531 11.9453 19.5156C11.9401 19.5208 11.9349 19.5286 11.9297 19.5391C11.9245 19.5443 11.9219 19.5521 11.9219 19.5625C11.9271 19.5677 11.9297 19.5755 11.9297 19.5859C11.9349 19.5911 11.9427 19.5964 11.9531 19.6016C12.3281 19.8203 12.7161 20.0078 13.1172 20.1641L13.1406 20.1719L13.1484 20.1875V20.2109V20.2266C12.9245 20.6641 12.6693 21.0833 12.3828 21.4844C12.3724 21.4896 12.362 21.4922 12.3516 21.4922C12.3464 21.4974 12.3385 21.5 12.3281 21.5C10.9688 21.0781 9.71875 20.4427 8.57812 19.5938L8.57031 19.5781L8.5625 19.5547C8.42188 18.0755 8.51562 16.6589 8.84375 15.3047C9.20312 13.8151 9.84896 12.3698 10.7812 10.9688C10.7865 10.9635 10.7917 10.9583 10.7969 10.9531C11.776 10.5 12.7943 10.1823 13.8516 10C13.862 10 13.8698 10.0026 13.875 10.0078C13.8854 10.0078 13.8932 10.013 13.8984 10.0234C14.0443 10.2786 14.1745 10.5417 14.2891 10.8125C15.4297 10.6354 16.5729 10.6354 17.7188 10.8125C17.8281 10.5417 17.9531 10.2786 18.0938 10.0234C18.099 10.013 18.1068 10.0078 18.1172 10.0078C18.1276 10.0026 18.138 10 18.1484 10C19.2057 10.1823 20.2214 10.5 21.1953 10.9531C21.2057 10.9583 21.2135 10.9635 21.2188 10.9688ZM13.5156 17.8438C13.7604 17.8438 13.9844 17.776 14.1875 17.6406C14.3958 17.5052 14.5599 17.3203 14.6797 17.0859C14.7995 16.8516 14.8594 16.599 14.8594 16.3281C14.8646 16.0521 14.8073 15.7969 14.6875 15.5625C14.5677 15.3281 14.4036 15.1432 14.1953 15.0078C13.987 14.8724 13.7578 14.8047 13.5078 14.8047C13.263 14.8047 13.0365 14.8724 12.8281 15.0078C12.625 15.1432 12.4635 15.3281 12.3438 15.5625C12.224 15.7969 12.1641 16.0521 12.1641 16.3281C12.1641 16.599 12.224 16.8516 12.3438 17.0859C12.4688 17.3203 12.6328 17.5052 12.8359 17.6406C13.0443 17.776 13.2708 17.8438 13.5156 17.8438ZM18.5 17.8438C18.7448 17.8438 18.9688 17.776 19.1719 17.6406C19.3802 17.5052 19.5443 17.3203 19.6641 17.0859C19.7839 16.8516 19.8438 16.599 19.8438 16.3281C19.849 16.0521 19.7917 15.7969 19.6719 15.5625C19.5521 15.3281 19.388 15.1432 19.1797 15.0078C18.9714 14.8724 18.7422 14.8047 18.4922 14.8047C18.2474 14.8047 18.0208 14.8724 17.8125 15.0078C17.6094 15.1432 17.4479 15.3281 17.3281 15.5625C17.2083 15.7969 17.1484 16.0521 17.1484 16.3281C17.1484 16.599 17.2083 16.8516 17.3281 17.0859C17.4531 17.3203 17.6172 17.5052 17.8203 17.6406C18.0286 17.776 18.2552 17.8438 18.5 17.8438Z" fill="white"/>
<path d="M31.355 12.3C33.555 12.3 35.084 13.466 35.084 16.15C35.084 18.834 33.555 20 31.355 20H28.814V12.3H31.355ZM30.31 18.548H31.421C32.664 18.548 33.544 17.8 33.544 16.15C33.544 14.5 32.664 13.752 31.421 13.752H30.31V18.548ZM37.6221 13.4H36.1481V11.926H37.6221V13.4ZM37.5891 20H36.1811V14.236H37.5891V20ZM41.0295 20.11C40.0395 20.11 39.2915 19.758 38.6425 19.23L39.3905 18.218C39.8635 18.625 40.4025 18.9 41.0295 18.9C41.6235 18.9 41.9425 18.702 41.9425 18.339C41.9425 17.976 41.6785 17.866 41.2385 17.778L40.5015 17.624C39.5005 17.415 38.9065 16.92 38.9065 15.974C38.9065 14.83 39.7315 14.126 41.0625 14.126C41.8985 14.126 42.6575 14.379 43.2515 14.918L42.4705 15.886C42.0415 15.534 41.5795 15.336 41.0405 15.336C40.6335 15.336 40.2705 15.49 40.2705 15.82C40.2705 16.084 40.4465 16.26 41.0075 16.381L41.8215 16.557C42.6905 16.744 43.3395 17.195 43.3395 18.152C43.3395 19.384 42.4265 20.11 41.0295 20.11ZM46.9729 20.11C45.2349 20.11 44.0909 18.9 44.0909 17.118C44.0909 15.336 45.2349 14.126 46.9729 14.126C47.8749 14.126 48.7439 14.489 49.2499 15.138L48.3039 16.084C47.9849 15.699 47.5119 15.424 46.9399 15.424C46.1039 15.424 45.5209 16.04 45.5209 17.118C45.5209 18.196 46.1039 18.812 46.9399 18.812C47.5119 18.812 47.9849 18.537 48.3039 18.152L49.2499 19.098C48.7439 19.747 47.8749 20.11 46.9729 20.11ZM52.7191 20.11C50.9701 20.11 49.8701 18.9 49.8701 17.118C49.8701 15.336 50.9701 14.126 52.7191 14.126C54.4681 14.126 55.5681 15.336 55.5681 17.118C55.5681 18.9 54.4681 20.11 52.7191 20.11ZM52.7301 18.812C53.5661 18.812 54.1381 18.196 54.1381 17.118C54.1381 16.04 53.5661 15.424 52.7301 15.424C51.8941 15.424 51.3001 16.04 51.3001 17.118C51.3001 18.196 51.8941 18.812 52.7301 18.812ZM58.1174 20H56.7094V14.236H58.1174V15.05L58.2934 15.116C58.6124 14.489 59.1404 14.126 59.8224 14.126C59.9874 14.126 60.1634 14.148 60.3174 14.181V15.6C60.0974 15.523 59.8224 15.468 59.4704 15.468C58.8654 15.468 58.3594 15.842 58.1174 16.348V20ZM63.0321 20.11C61.6901 20.11 60.6231 19.087 60.6231 17.118C60.6231 15.182 61.7891 14.126 63.4501 14.126C63.9671 14.126 64.4951 14.258 64.8361 14.445V12.19H66.2441V20H64.8361V19.186L64.6601 19.12C64.3411 19.813 63.7581 20.11 63.0321 20.11ZM63.4391 18.812C63.9891 18.812 64.5611 18.57 64.8361 18.042V15.71C64.4841 15.501 64.0331 15.424 63.5931 15.424C62.7351 15.424 62.0531 15.952 62.0531 17.118C62.0531 18.174 62.5261 18.812 63.4391 18.812ZM72.9347 20.11C71.7247 20.11 70.7237 19.67 70.0747 18.944L71.0317 17.888C71.5487 18.416 72.2307 18.702 72.9127 18.702C73.7267 18.702 74.1117 18.317 74.1117 17.778C74.1117 17.294 73.8587 16.997 73.0777 16.799L72.1867 16.568C70.9877 16.26 70.3607 15.479 70.3607 14.456C70.3607 13.059 71.3507 12.19 72.8797 12.19C73.8917 12.19 74.8377 12.564 75.5527 13.202L74.6397 14.357C74.0457 13.785 73.4297 13.598 72.8907 13.598C72.2637 13.598 71.8567 13.862 71.8567 14.335C71.8567 14.808 72.2087 15.017 72.7917 15.182L73.7817 15.457C75.0247 15.798 75.6517 16.458 75.6517 17.635C75.6517 19.23 74.5077 20.11 72.9347 20.11ZM79.4368 20.11C77.6658 20.11 76.5108 18.911 76.5108 17.129C76.5108 15.347 77.6658 14.126 79.3158 14.126C81.0978 14.126 81.9888 15.347 81.9888 17.052V17.547H77.9298C78.0508 18.449 78.6228 18.834 79.4368 18.834C80.0308 18.834 80.4818 18.647 80.9328 18.273L81.7798 19.285C81.1638 19.857 80.2838 20.11 79.4368 20.11ZM79.3158 15.314C78.6118 15.314 78.1498 15.677 77.9738 16.403H80.5918C80.5038 15.71 80.0418 15.314 79.3158 15.314ZM84.5002 20H83.0922V14.236H84.5002V15.05L84.6762 15.116C84.9952 14.489 85.5232 14.126 86.2052 14.126C86.3702 14.126 86.5462 14.148 86.7002 14.181V15.6C86.4802 15.523 86.2052 15.468 85.8532 15.468C85.2482 15.468 84.7422 15.842 84.5002 16.348V20ZM90.9674 20H89.2954L87.1174 14.236H88.7234L90.0434 18.196H90.2194L91.5394 14.236H93.1454L90.9674 20ZM96.4094 20.11C94.6384 20.11 93.4834 18.911 93.4834 17.129C93.4834 15.347 94.6384 14.126 96.2884 14.126C98.0704 14.126 98.9614 15.347 98.9614 17.052V17.547H94.9024C95.0234 18.449 95.5954 18.834 96.4094 18.834C97.0034 18.834 97.4544 18.647 97.9054 18.273L98.7524 19.285C98.1364 19.857 97.2564 20.11 96.4094 20.11ZM96.2884 15.314C95.5844 15.314 95.1224 15.677 94.9464 16.403H97.5644C97.4764 15.71 97.0144 15.314 96.2884 15.314ZM101.473 20H100.065V14.236H101.473V15.05L101.649 15.116C101.968 14.489 102.496 14.126 103.178 14.126C103.343 14.126 103.519 14.148 103.673 14.181V15.6C103.453 15.523 103.178 15.468 102.826 15.468C102.221 15.468 101.715 15.842 101.473 16.348V20Z" fill="white"/>
<path d="M113.625 11.1875C113.781 11.1875 113.914 11.2422 114.023 11.3516C114.133 11.4609 114.188 11.5938 114.188 11.75C114.188 11.9062 114.133 12.0391 114.023 12.1484C113.914 12.2578 113.781 12.3125 113.625 12.3125H110.062V20.1875H117.938V16.625C117.938 16.4688 117.992 16.3359 118.102 16.2266C118.211 16.1172 118.344 16.0625 118.5 16.0625C118.656 16.0625 118.789 16.1172 118.898 16.2266C119.008 16.3359 119.062 16.4688 119.062 16.625V20.375C119.062 20.543 119.02 20.6992 118.934 20.8438C118.852 20.9883 118.738 21.1016 118.594 21.1836C118.449 21.2695 118.293 21.3125 118.125 21.3125H109.875C109.707 21.3125 109.551 21.2695 109.406 21.1836C109.262 21.1016 109.146 20.9883 109.061 20.8438C108.979 20.6992 108.938 20.543 108.938 20.375V12.125C108.938 11.957 108.979 11.8008 109.061 11.6562C109.146 11.5117 109.262 11.3984 109.406 11.3164C109.551 11.2305 109.707 11.1875 109.875 11.1875H113.625ZM118.5 11.1875C118.656 11.1875 118.789 11.2422 118.898 11.3516C119.008 11.4609 119.062 11.5938 119.062 11.75V14C119.062 14.1562 119.008 14.2891 118.898 14.3984C118.789 14.5078 118.656 14.5625 118.5 14.5625C118.344 14.5625 118.211 14.5078 118.102 14.3984C117.992 14.2891 117.938 14.1562 117.938 14V13.1094L114.398 16.6484C114.289 16.7578 114.156 16.8125 114 16.8125C113.844 16.8125 113.711 16.7578 113.602 16.6484C113.492 16.5391 113.438 16.4062 113.438 16.25C113.438 16.0938 113.492 15.9609 113.602 15.8516L117.141 12.3125H116.25C116.094 12.3125 115.961 12.2578 115.852 12.1484C115.742 12.0391 115.688 11.9062 115.688 11.75C115.688 11.5938 115.742 11.4609 115.852 11.3516C115.961 11.2422 116.094 11.1875 116.25 11.1875H118.5Z" fill="white"/>
</g>
<defs>
<filter id="filter0_i_25_75" x="0" y="-2" width="130" height="34" filterUnits="userSpaceOnUse" color-interpolation-filters="sRGB">
<feFlood flood-opacity="0" result="BackgroundImageFix"/>
<feBlend mode="normal" in="SourceGraphic" in2="BackgroundImageFix" result="shape"/>
<feColorMatrix in="SourceAlpha" type="matrix" values="0 0 0 0 0 0 0 0 0 0 0 0 0 0 0 0 0 0 127 0" result="hardAlpha"/>
<feOffset dy="-2"/>
<feGaussianBlur stdDeviation="1.65"/>
<feComposite in2="hardAlpha" operator="arithmetic" k2="-1" k3="1"/>
<feColorMatrix type="matrix" values="0 0 0 0 1 0 0 0 0 1 0 0 0 0 1 0 0 0 0.11 0"/>
<feBlend mode="normal" in2="shape" result="effect1_innerShadow_25_75"/>
</filter>
</defs>
</svg>

<svg xmlns="http://www.w3.org/2000/svg" width="130" height="32" fill="none">
  <g filter="url(#a)">
    <rect width="130" height="32" fill="#5865f2" rx="4"/>
    <path fill="#fff" d="M21.219 10.969q1.305 1.93 1.86 4.015.586 2.188.358 4.579l-.007.015-.016.016a12.4 12.4 0 0 1-3.75 1.906.1.1 0 0 1-.031-.008q-.015 0-.024-.015a9.6 9.6 0 0 1-.765-1.25v-.039l.008-.016.023-.016a7.7 7.7 0 0 0 1.164-.554q.016-.008.016-.016l.008-.023q0-.016-.008-.024 0-.015-.008-.023a7 7 0 0 1-.235-.18q-.008-.008-.023-.008-.015-.007-.023 0a8.8 8.8 0 0 1-3.758.844 9 9 0 0 1-3.781-.844.03.03 0 0 0-.032 0q-.008 0-.015.008l-.235.18-.015.023q-.008.008-.008.023.008.009.008.024a8 8 0 0 0 1.188.578l.023.008.007.015v.04q-.335.656-.765 1.257a.1.1 0 0 1-.031.008q-.009.008-.024.008a12.4 12.4 0 0 1-3.75-1.906l-.008-.016-.008-.023a12.8 12.8 0 0 1 .282-4.25q.54-2.235 1.937-4.336l.016-.016q1.468-.679 3.055-.953.015 0 .023.008.015 0 .023.015.22.384.391.79a11.1 11.1 0 0 1 3.43 0q.164-.406.375-.79.008-.015.023-.015a.1.1 0 0 1 .031-.008q1.586.273 3.047.953a.1.1 0 0 1 .024.016m-7.703 6.875q.366 0 .672-.203.312-.203.492-.555.18-.351.18-.758a1.6 1.6 0 0 0-.172-.765 1.4 1.4 0 0 0-.493-.555 1.24 1.24 0 0 0-.687-.203q-.367 0-.68.203-.304.203-.484.555t-.18.765q0 .407.18.758a1.5 1.5 0 0 0 .492.555q.312.203.68.203m4.984 0q.367 0 .672-.203.312-.203.492-.555.18-.351.18-.758a1.6 1.6 0 0 0-.172-.765 1.4 1.4 0 0 0-.492-.555 1.24 1.24 0 0 0-.688-.203q-.367 0-.68.203-.304.203-.484.555t-.18.765q0 .407.18.758.188.352.492.555.313.203.68.203M31.355 12.3c2.2 0 3.729 1.166 3.729 3.85S33.555 20 31.355 20h-2.541v-7.7zm-1.045 6.248h1.111c1.243 0 2.123-.748 2.123-2.398s-.88-2.398-2.123-2.398H30.31zm7.312-5.148h-1.474v-1.474h1.474zM37.59 20h-1.408v-5.764h1.408zm3.44.11c-.99 0-1.738-.352-2.387-.88l.749-1.012c.473.407 1.012.682 1.639.682.593 0 .913-.198.913-.561s-.264-.473-.704-.561l-.737-.154c-1.001-.209-1.596-.704-1.596-1.65 0-1.144.825-1.848 2.157-1.848.835 0 1.594.253 2.188.792l-.78.968c-.43-.352-.891-.55-1.43-.55-.407 0-.77.154-.77.484 0 .264.175.44.736.561l.815.176c.868.187 1.517.638 1.517 1.595 0 1.232-.913 1.958-2.31 1.958m5.944 0c-1.738 0-2.882-1.21-2.882-2.992s1.144-2.992 2.882-2.992c.902 0 1.77.363 2.277 1.012l-.946.946a1.76 1.76 0 0 0-1.364-.66c-.836 0-1.42.616-1.42 1.694s.584 1.694 1.42 1.694a1.76 1.76 0 0 0 1.364-.66l.946.946c-.506.649-1.375 1.012-2.277 1.012m5.746 0c-1.749 0-2.849-1.21-2.849-2.992s1.1-2.992 2.85-2.992c1.748 0 2.848 1.21 2.848 2.992s-1.1 2.992-2.849 2.992m.011-1.298c.836 0 1.408-.616 1.408-1.694s-.572-1.694-1.408-1.694-1.43.616-1.43 1.694.594 1.694 1.43 1.694M58.117 20H56.71v-5.764h1.408v.814l.176.066c.32-.627.847-.99 1.53-.99.164 0 .34.022.494.055V15.6a2.5 2.5 0 0 0-.847-.132c-.605 0-1.11.374-1.353.88zm4.915.11c-1.342 0-2.409-1.023-2.409-2.992 0-1.936 1.166-2.992 2.827-2.992.517 0 1.045.132 1.386.319V12.19h1.408V20h-1.408v-.814l-.176-.066c-.319.693-.902.99-1.628.99m.407-1.298c.55 0 1.122-.242 1.397-.77V15.71c-.352-.209-.803-.286-1.243-.286-.858 0-1.54.528-1.54 1.694 0 1.056.473 1.694 1.386 1.694m9.496 1.298c-1.21 0-2.211-.44-2.86-1.166l.957-1.056a2.65 2.65 0 0 0 1.88.814c.815 0 1.2-.385 1.2-.924 0-.484-.253-.781-1.034-.979l-.891-.231c-1.2-.308-1.826-1.089-1.826-2.112 0-1.397.99-2.266 2.519-2.266a4 4 0 0 1 2.673 1.012l-.913 1.155c-.594-.572-1.21-.759-1.75-.759-.626 0-1.033.264-1.033.737s.352.682.935.847l.99.275c1.243.341 1.87 1.001 1.87 2.178 0 1.595-1.144 2.475-2.717 2.475m6.502 0c-1.771 0-2.926-1.199-2.926-2.981s1.155-3.003 2.805-3.003c1.782 0 2.673 1.221 2.673 2.926v.495h-4.06c.122.902.694 1.287 1.508 1.287.594 0 1.045-.187 1.496-.561l.847 1.012c-.616.572-1.496.825-2.343.825m-.121-4.796c-.704 0-1.166.363-1.342 1.089h2.618c-.088-.693-.55-1.089-1.276-1.089M84.5 20h-1.408v-5.764H84.5v.814l.176.066c.32-.627.847-.99 1.53-.99.164 0 .34.022.494.055V15.6a2.5 2.5 0 0 0-.847-.132c-.605 0-1.11.374-1.353.88zm6.467 0h-1.672l-2.178-5.764h1.606l1.32 3.96h.176l1.32-3.96h1.606zm5.442.11c-1.77 0-2.926-1.199-2.926-2.981s1.155-3.003 2.805-3.003c1.782 0 2.673 1.221 2.673 2.926v.495h-4.059c.121.902.693 1.287 1.507 1.287.594 0 1.045-.187 1.496-.561l.847 1.012c-.616.572-1.496.825-2.343.825m-.12-4.796c-.705 0-1.167.363-1.343 1.089h2.618c-.088-.693-.55-1.089-1.276-1.089M101.472 20h-1.408v-5.764h1.408v.814l.176.066c.319-.627.847-.99 1.529-.99.165 0 .341.022.495.055V15.6a2.5 2.5 0 0 0-.847-.132c-.605 0-1.111.374-1.353.88zm12.153-8.812q.234 0 .398.164a.54.54 0 0 1 .165.398.54.54 0 0 1-.165.398.54.54 0 0 1-.398.165h-3.563v7.874h7.876v-3.562a.54.54 0 0 1 .164-.398.54.54 0 0 1 .398-.165q.234 0 .398.165a.54.54 0 0 1 .164.398v3.75a.9.9 0 0 1-.128.469.9.9 0 0 1-.34.34.9.9 0 0 1-.469.128h-8.25a.9.9 0 0 1-.469-.128.9.9 0 0 1-.345-.34.93.93 0 0 1-.123-.469v-8.25q0-.252.123-.469a.9.9 0 0 1 .345-.34.9.9 0 0 1 .469-.129zm4.875 0q.234 0 .398.164a.54.54 0 0 1 .164.398V14a.54.54 0 0 1-.164.398.54.54 0 0 1-.398.165.54.54 0 0 1-.398-.165.54.54 0 0 1-.164-.398v-.89l-3.54 3.538a.54.54 0 0 1-.398.165.54.54 0 0 1-.398-.165.54.54 0 0 1-.164-.398.54.54 0 0 1 .164-.398l3.539-3.54h-.891a.54.54 0 0 1-.398-.164.54.54 0 0 1-.164-.398.54.54 0 0 1 .164-.398.54.54 0 0 1 .398-.165z"/>
  </g>
  <defs>
    <filter id="a" width="130" height="34" x="0" y="-2" color-interpolation-filters="sRGB" filterUnits="userSpaceOnUse">
      <feFlood flood-opacity="0" result="BackgroundImageFix"/>
      <feBlend in="SourceGraphic" in2="BackgroundImageFix" result="shape"/>
      <feColorMatrix in="SourceAlpha" result="hardAlpha" values="0 0 0 0 0 0 0 0 0 0 0 0 0 0 0 0 0 0 127 0"/>
      <feOffset dy="-2"/>
      <feGaussianBlur stdDeviation="1.65"/>
      <feComposite in2="hardAlpha" k2="-1" k3="1" operator="arithmetic"/>
      <feColorMatrix values="0 0 0 0 1 0 0 0 0 1 0 0 0 0 1 0 0 0 0.11 0"/>
      <feBlend in2="shape" result="effect1_innerShadow_25_75"/>
    </filter>
  </defs>
</svg>
